icon/fa/face-sad-tear.svg

<svg xmlns="http://www.w3.org/2000/svg" viewBox="0 0 512 512"><!--! Font Awesome Free 6.1.2 by @fontawesome - https://fontawesome.com License - https://fontawesome.com/license/free (Icons: CC BY 4.0, Fonts: SIL OFL 1.1, Code: MIT License) Copyright 2022 Fonticons, Inc.--><path d="M256 0c141.4 0 256 114.6 256 256S397.4 512 256 512 0 397.4 0 256 114.6 0 256 0zm0 352c34.9 0 67.2 15.8 92.3 42.9 6 6.5 16.1 6.8 22.6.8s6.8-16.1.8-22.6C341.6 340.5 301 320 256 320c-8.8 0-16 7.2-16 16s7.2 16 16 16zm-48 17c0-20-28.4-60.4-41.6-77.7-3.2-4.4-9.6-4.4-12.8 0-13 17.3-41.6 57.7-41.6 77.7 0 26 21.5 47 48 47s48-21 48-47zm95.6-161c0 17.7 13.5 32 32 32 17.7 0 32-14.3 32-32s-14.3-32-32-32c-18.5 0-32 14.3-32 32zm-96 0c0-17.7-14.3-32-32-32-18.5 0-32 14.3-32 32s13.5 32 32 32c17.7 0 32-14.3 32-32z"/></svg>

<svg xmlns="http://www.w3.org/2000/svg" viewBox="0 0 512 512" height="1em" width="1em">
<!--! Font Awesome Free 6.1.2 by @fontawesome - https://fontawesome.com License - https://fontawesome.com/license/free (Icons: CC BY 4.0, Fonts: SIL OFL 1.1, Code: MIT License) Copyright 2022 Fonticons, Inc.-->
  <path d="M256 0C397.4 0 512 114.6 512 256C512 397.4 397.4 512 256 512C114.6 512 0 397.4 0 256C0 114.6 114.6 0 256 0zM256 352C290.9 352 323.2 367.8 348.3 394.9C354.3 401.4 364.4 401.7 370.9 395.7C377.4 389.7 377.7 379.6 371.7 373.1C341.6 340.5 301 320 256 320C247.2 320 240 327.2 240 336C240 344.8 247.2 352 256 352H256zM208 369C208 349 179.6 308.6 166.4 291.3C163.2 286.9 156.8 286.9 153.6 291.3C140.6 308.6 112 349 112 369C112 395 133.5 416 160 416C186.5 416 208 395 208 369H208zM303.6 208C303.6 225.7 317.1 240 335.6 240C353.3 240 367.6 225.7 367.6 208C367.6 190.3 353.3 176 335.6 176C317.1 176 303.6 190.3 303.6 208zM207.6 208C207.6 190.3 193.3 176 175.6 176C157.1 176 143.6 190.3 143.6 208C143.6 225.7 157.1 240 175.6 240C193.3 240 207.6 225.7 207.6 208z"/>
</svg>
